!!!COM: Bach, Johann Sebastian
!!!CDT: 1685/3//-1750/7/28/
!!!OTL@@DE: Herr Jesu Christ, dich zu uns wend'
!!!AGN: 4-Part Chorale
!!!SCT: BH 136
!!!SCT: BWV 332
**harm	**root	**kern	**kern	**kern	**kern
!	!	!bass	!tenor	!alto	!soprno
*	*Iorgan	*Iorgan	*Iorgan	*Iorgan	*Iorgan
*	*	*clefF4	*clefF4	*clefG2	*clefG2
*k[f#c#g#d#]	*k[f#c#g#d#]	*k[f#c#g#d#]	*k[f#c#g#d#]	*k[f#c#g#d#]	*k[f#c#g#d#]
*E:	*E:	*E:	*E:	*E:	*E:
*M4/4	*M4/4	*M4/4	*M4/4	*M4/4	*M4/4
*met(c)	*met(c)	*met(c)	*met(c)	*met(c)	*met(c)
*MM60	*MM60	*MM60	*MM60	*MM60	*MM60
I	4GG	4EE	4G#	4B	4e
=1	=1	=1	=1	=1	=1
I	4GG	4EE	4B	4e	4g#
Vb	4DD	4DD#	4B	[4f#	4b
I	4GG	8EE	4B	8f#]	4g#
.	.	8GG#	.	4e	.
V	4DD	4BB	4B	.	4f#
.	.	.	.	8d#	.
=2	=2	=2	=2	=2	=2
I	4GG	8E	4B	4e	4g#
.	.	8D#	.	.	.
viiob/V	4CC#	4C#	4c#	4e	4a#
V;	4DD;	4BB;	4F#;	4d#;	4b;
ii	4AA	8F#	4A	4f#	4cc#
.	.	8E	.	.	.
=3	=3	=3	=3	=3	=3
V7	4DD	4D#	4B	4.f#	8b
.	.	.	.	.	8a
I	4GG	4E	4B	.	4g#
.	.	.	.	[8e	.
V7b/V	8AA	8AA#	8c#	8e]	4f#
V7b/VI	8BB	8BB#	4G#	8d#	.
vi	8EE	8C#	.	8c#	8e
Vb	8DD	8D#	[8F#	8B	8f#
=4	=4	=4	=4	=4	=4
I	4GG	4E	8F#]	4B	4g#
.	.	.	4E	.	.
V	4DD	4BB	.	4B	4f#
.	.	.	8D#	.	.
I;	4GG;	4EE;	4G#;	4B;	4e;
V	4DD	4BB	4B	4d#	4f#
!!linebreak: 2
=5	=5	=5	=5	=5	=5
I	4GG	8EE	4B	4e	4g#
.	.	8FF#	.	.	.
Ib	4GG	8GG#	4B	4e	4g#
.	.	8AA#	.	.	.
V	2DD	8BB	4B	4e	4f#
.	.	8C#	.	.	.
.	.	8D#	8F#	4d#	4b
.	.	8G#	8B	.	.
=6	=6	=6	=6	=6	=6
vi7	4EE	8E	8G#	4c#	4b
.	.	8C#	8E	.	.
V/V	4AA	8F#	4F#	4c#	4a#
.	.	8FF#	.	.	.
V;	4DD;	4BB;	4F#;	4d#;	4b;
V7/IV	4GG	8E	4E	4B	4g#
.	.	8D	.	.	.
=7	=7	=7	=7	=7	=7
IVb	4CC	8C#	8E	4c#	4a
.	.	8D#y	8F#	.	.
I	4GG	4E	4G#	8B	4g#
.	.	.	.	[8e	.
V7b/V	8AA	8AA#	8c#	8e]	4f#
V7b/VI	8BB	8BB#	8G#	4d#	.
vi	4EE	4C#	4G#	.	4e
.	.	.	.	8c#	.
=8	=8	=8	=8	=8	=8
Ib	4GG	8GG#	4G#	4B	4e
.	.	8AA	.	.	.
V	4DD	4BB	4F#	4B	4d#
I;	4GG;	4EE;	4G#;	4B;	4e;
==	==	==	==	==	==
*-	*-	*-	*-	*-	*-
!!chor2scor: -l 2 -s 0.6 -o %b.pmx
!!!YEC: Copyright 2003 by Craig Stuart Sapp
!!!license: GNU General Public License (http://www.gnu.org/copyleft/gpl.html)
!!!SMA: 371 Bach Chorales, edited by Ludwig Erk, C.F. Peters
!!!PDT: 1850, 1865
!!!ONB: Harmony and Root analysis done manually by Craig Sapp
